X: 18260
T: Humours Of Lucy
R: jig
M: 6/8
K: Eminor
|:~E3 ~G3|B2A G3|def dBG|~A3 GFD|
~E3 ~G3|B2A G3|ded dBG|1 ABc AFD:|2 ABc dcB||
K: Gmaj
|:GBd ~g3|gfd ~e3|GAB dBG|ABc AFD|
GBd ~g3|gfd ~e3|efg ~a3|1 gfd edB:|2 baf g2B||

